!!!SOCIAL_FUNCTION:	war songs
!!!PDT:	1913
!!!OTL: No_90_War_Song.krn
!!!REG: Great_Lakes
!!!LANG: Non-Tone
!!!LING_GROUP: Algonquin
**kern	**kern
*staff2	*staff1
=1-	=1-
*clefF4	*clefF4
*k[b-e-a-d-g-c-]	*k[b-e-a-d-g-c-]
*M3/4	*M3/4
12GG-^/	16B-\LK
.	8.B-\J
12r	.
12GG-/	.
12GG-^/	8B-\L
12r	.
.	8B-\J
12GG-/	.
12GG-^/	4B-\
12r	.
12GG-/	.
=2||	=2||
*M2/4	*M2/4
2r	16e-\LK
.	8.e-\J
.	8B-\L
.	8B-\J
=3	=3
2r	8.B-\L
.	16E-\Jk
.	8E-\L
.	8E-\J
=4	=4
2r	16G-\LK
.	8.G-\J
.	8E-\L
.	8E-\J
=5	=5
2r	4E-\
.	16BB-/LK
.	[8.BB-/J
=6	=6
2r	8.BB-/L]
.	16A-/Jk
.	8A-\L
.	8A-\J
=7	=7
2r	4E-\
.	8E-\L
.	8E-\J
=8||	=8||
*M3/4	*M3/4
2.r	16G-\LK
.	8.G-\J
.	8E-\L
.	8E-\J
.	4E-\
=9||	=9||
*M2/4	*M2/4
2r	4.E-\
.	8E-\
=10	=10
2r	[2E-\
=11	=11
2r	2E-\]
==	==
*-	*-
